webapp/icon_heart.svg

<svg width="16" height="16" xmlns="http://www.w3.org/2000/svg"><path d="M4.3,2.1C2.816504,2.218309 1.4015208,3.1679153 0.87398438,4.58375 0.34678348,5.8777663 0.60547985,7.4216259 1.4467505,8.5260791 2.428738,9.9126453 3.9007302,10.812811 5.1733475,11.900144 6.1025539,12.652873 7.0572605,13.374847 8.03,14.07 9.8414762,12.741487 11.62015,11.365101 13.338177,9.9179978 14.534069,8.8670814 15.617932,7.3839163 15.42875,5.70625 15.351533,4.1060809 14.135607,2.6806679 12.60355,2.2616895 11.873602,2.0258183 11.076327,2.0638822 10.328633,2.1798242 9.4188311,2.3910696 8.6202638,2.9340558 8.02,3.64 7.2081279,2.6482215 5.9494781,2.0210606 4.6572266,2.0850586 4.5320909,2.0883379 4.4030623,2.0709127 4.28,2.1" fill="#e74c3c" /></svg>

<svg xmlns="http://www.w3.org/2000/svg" viewBox="0 0 16 16"><path fill="#e74c3c" d="M4.3 2.1A4 4 0 0 0 .87 4.58a4.1 4.1 0 0 0 .58 3.95C2.43 9.9 3.9 10.8 5.17 11.9q1.4 1.12 2.86 2.17a100 100 0 0 0 5.3-4.15c1.2-1.05 2.29-2.54 2.1-4.21a3.9 3.9 0 0 0-2.83-3.45 5 5 0 0 0-2.27-.08c-.91.21-1.71.75-2.31 1.46a4.2 4.2 0 0 0-3.36-1.55q-.2-.02-.38.01"/></svg>
